(1008)
(T1 D=2. CR=0.125 - ZMIN=5.99 - FACE MILL)
G90 G94 G91.1 G40 G49 G17
G20
G28 G91 Z0.
G90

(FACE2)
M0 (CHANGE TOOL)
T1
S5000 M5
G17 G90 G94
G54
G0 X33.6239 Y67.
G43 Z8.99 H1 M3
G19 G2 Y64. Z5.99 J-3. K0. F250. 
G1 Y4. M3
G17 G2 X31.7679 I-0.928 J0. M5
G1 Y64. M3
G3 X29.9118 I-0.928 J0. M5
G1 Y4. M3
G2 X28.0558 I-0.928 J0. M5
G1 Y64. M3
G3 X26.1997 I-0.928 J0. M5
G1 Y4. M3
G2 X24.3437 I-0.928 J0. M5
G1 Y64. M3
G3 X22.4876 I-0.928 J0. M5
G1 Y4. M3
G2 X20.6315 I-0.928 J0. M5
G1 Y64. M3
G3 X18.7755 I-0.928 J0. M5
G1 Y4. M3
G2 X16.9194 I-0.928 J0. M5
G1 Y64. M3
G3 X15.0634 I-0.928 J0. M5
G1 Y4. M3
G2 X13.2073 I-0.928 J0. M5
G1 Y64. M3
G3 X11.3512 I-0.928 J0. M5
G1 Y4. M3
G19 G2 Y1. Z8.99 J0. M5 K3.
G17

M5
G28 G91 Z0.
G90
G28 G91 X0. Y0.
G90
M30
