(1002)
(T1 D=6. CR=0. - ZMIN=-0.04 - FACE MILL)
G90 G94 G91.1 G40 G49 G17
G20
G28 G91 Z0.
G90

(FACE1)
T1 M6
S5000 M3
G17 G90 G94
G54
G0 X39.9 Y-16.9507
G43 Z0.6 H1
G0 Z0.56
G18 G3 X39.3 Z-0.04 I-0.6 K0. F40.
G1 X39.0004
X-39.0004
G17 G2 Y-12.9433 I0. J2.0037
G1 X39.0004
G3 Y-8.936 I0. J2.0037
G1 X-39.0004
G2 Y-4.9287 I0. J2.0037
G1 X39.0004
G3 Y-0.9213 I0. J2.0037
G1 X-39.0004
G2 Y3.086 I0. J2.0037
G1 X39.0004
G3 Y7.0933 I0. J2.0037
G1 X-39.0004
G2 Y11.1007 I0. J2.0037
G1 X39.0004
G3 Y15.108 I0. J2.0037
G1 X-39.0004
G18 G3 X-39.6004 Z0.56 I0. K0.6
G0 Z0.6
G17

M5
G28 G91 Z0.
G90
G28 G91 X0. Y0.
G90
M30
