(1009)
(T1 D=2. CR=0.125 - ZMIN=5.99 - FACE MILL)
G90 G94 G91.1 G40 G49 G17
G20
G28 G91 Z0.
G90

(FACE2)
T1 M6
(MAKE SURE SPRAYER TIP IS CLEAN)
S18000 M3
G17 G90 G94
G54
G0 X23.3739 Y148.1248
G43 Z6.24 H1
G19 G2 Y147.8748 Z5.99 J-0.25 K0. F450.
G1 Y67.8752 F700.
G17 G2 X21.5179 I-0.928 J0. F450.
G1 Y147.8748 F700.
G3 X19.6618 I-0.928 J0. F450.
G1 Y67.8752 F700.
G2 X17.8058 I-0.928 J0. F450.
G1 Y147.8748 F700.
G3 X15.9497 I-0.928 J0. F450.
G1 Y67.8752 F700.
G2 X14.0937 I-0.928 J0. F450.
G1 Y147.8748 F700.
G3 X12.2376 I-0.928 J0. F450.
G1 Y67.8752 F700.
G2 X10.3815 I-0.928 J0. F450.
G1 Y147.8748 F700.
G3 X8.5255 I-0.928 J0. F450.
G1 Y67.8752 F700.
G2 X6.6694 I-0.928 J0. F450.
G1 Y147.8748 F700.
G3 X4.8134 I-0.928 J0. F450.
G1 Y67.8752 F700.
G2 X2.9573 I-0.928 J0. F450.
G1 Y147.8748 F700.
G3 X1.1013 I-0.928 J0. F450.
G1 Y67.8752 F700.
G19 G2 Y67.6252 Z6.24 J0. K0.25
G17

M5
G28 G91 Z0.
G90
G28 G91 X0. Y0.
G90
M30
