(1009)
(T1 D=2. CR=0.125 - ZMIN=5.99 - FACE MILL)
G90 G94 G91.1 G40 G49 G17
G20
G28 G91 Z0.
G90

(FACE2)
T1 M6
(MAKE SURE SPRAYER TIP IS CLEAN)
S18000 M3
G17 G90 G94
G54
G0 X43.8739 Y148.1248
G43 Z6.24 H1
G19 G2 Y147.8748 Z5.99 J-0.25 K0. F450.
G1 Y1.875 F700.
G17 G2 X42.0179 I-0.928 J0. F450.
G1 Y147.8748 F700.
G3 X40.1618 I-0.928 J0. F450.
G1 Y1.875 F700.
G2 X38.3058 I-0.928 J0. F450.
G1 Y147.8748 F700.
G3 X36.4497 I-0.928 J0. F450.
G1 Y1.875 F700.
G2 X34.5937 I-0.928 J0. F450.
G1 Y147.8748 F700.
G3 X32.7376 I-0.928 J0. F450.
G1 Y1.875 F700.
G2 X30.8815 I-0.928 J0. F450.
G1 Y147.8748 F700.
G3 X29.0255 I-0.928 J0. F450.
G1 Y1.875 F700.
G2 X27.1694 I-0.928 J0. F450.
G1 Y147.8748 F700.
G3 X25.3134 I-0.928 J0. F450.
G1 Y1.875 F700.
G2 X23.4573 I-0.928 J0. F450.
G1 Y147.8748 F700.
G3 X21.6013 I-0.928 J0. F450.
G1 Y1.875 F700.
G19 G2 Y1.625 Z6.24 J0. K0.25
G17

M5
G28 G91 Z0.
G90
G28 G91 X0. Y0.
G90
M30
