(1008)
(T1 D=2. CR=0.125 - ZMIN=5.99 - FACE MILL)
G90 G94 G91.1 G40 G49 G17
G20
G28 G91 Z0.
G90

(FACE2)
T1 M6
S5000 M3
G17 G90 G94
G54
G0 X44.0179 Y151.
G43 Z8.99 H1
G19 G2 Y148. Z5.99 J-3. K0. F700.
G1 Y69.
G17 G2 X42.0558 I-0.9811 J0.
G1 Y148.
G3 X40.0936 I-0.9811 J0.
G1 Y69.
G2 X38.1315 I-0.9811 J0.
G1 Y148.
G3 X36.1694 I-0.9811 J0.
G1 Y69.
G2 X34.2073 I-0.9811 J0.
G1 Y148.
G3 X32.2452 I-0.9811 J0.
G1 Y69.
G2 X30.283 I-0.9811 J0.
G1 Y148.
G3 X28.3209 I-0.9811 J0.
G1 Y69.
G2 X26.3588 I-0.9811 J0.
G1 Y148.
G3 X24.3967 I-0.9811 J0.
G1 Y69.
G2 X22.4346 I-0.9811 J0.
G1 Y148.
G3 X20.4724 I-0.9811 J0.
G1 Y69.
G2 X18.5103 I-0.9811 J0.
G1 Y148.
G3 X16.5482 I-0.9811 J0.
G1 Y69.
G2 X14.5861 I-0.9811 J0.
G1 Y148.
G3 X12.624 I-0.9811 J0.
G1 Y69.
G2 X10.6618 I-0.9811 J0.
G1 Y148.
G3 X8.6997 I-0.9811 J0.
G1 Y69.
G2 X6.7376 I-0.9811 J0.
G1 Y148.
G3 X4.7755 I-0.9811 J0.
G1 Y69.
G2 X2.8134 I-0.9811 J0.
G1 Y148.
G3 X0.8512 I-0.9811 J0.
G1 Y69.
G19 G2 Y66. Z8.99 J0. K3.
G17

M5
G28 G91 Z0.
G90
G28 G91 X0. Y0.
G90
M30
